X: 1
T:Kerry
T:Green Fields of Rossbeigh, The
S:Trad, arr. Paddy O'Brien
R:reel
E:9
I:speed 350
M:C|
K:EDor
FA|BE~E2 BAFB|ABde fded|BE~E2 BAFA|BFAF ~E2FA|\
BABd BAFB|ABde fded|BE~E2 BAFA|BFAF E2:|\
FA|Bdef ~g2 fe|dB~B2 dBAd|Bdef gefe|dBAF ~E2 ef|\
gfga gfeg|~f2 eg fedB|ABde fdec|dBAF E2:|**
